src/pos-icons/radiator-off.svg

<svg height="24" viewBox="0 0 24 24" width="24" xmlns="http://www.w3.org/2000/svg"><path d="m3.28 2-1.28 1.27 2.77 2.77.87 1.35-1.42 2.21 1.73.9 1.28-2 3.5 3.5h-6.73a2 2 0 0 0 -2 2v8h2v-2h14.73l1.27 1.27v.73h2v-1.27-.01zm3.72 15a1 1 0 0 1 -1 1 1 1 0 0 1 -1-1v-2a1 1 0 0 1 1-1 1 1 0 0 1 1 1zm4 0a1 1 0 0 1 -1 1 1 1 0 0 1 -1-1v-2a1 1 0 0 1 1-1 1 1 0 0 1 1 1zm4 0a1 1 0 0 1 -1 1 1 1 0 0 1 -1-1v-2c0-.21.08-.39.18-.55l1.82 1.82zm1.25-7.5 1.42-2.2-1.42-2.2 2-3.1 1.75.89-1.44 2.21 1.44 2.2v.01l-2 3.09zm5.75 4.5v4.18l-3-3v-.18a1 1 0 0 0 -1-1c-.05 0-.1 0-.15.03l-2.03-2.03h4.18c1.11 0 2 .9 2 2m-10.36-6.7-1.42-2.2 2-3.1 1.73.89-1.42 2.21 1.42 2.2-.01.01-1.1 1.69-1.4-1.38zm-4.14-3.61-1.4-1.41.12-.19 1.73.91z"/></svg>

<?xml version="1.0" encoding="UTF-8"?><!DOCTYPE svg PUBLIC "-//W3C//DTD SVG 1.1//EN" "http://www.w3.org/Graphics/SVG/1.1/DTD/svg11.dtd"><svg xmlns="http://www.w3.org/2000/svg" xmlns:xlink="http://www.w3.org/1999/xlink" version="1.1" id="mdi-radiator-off" width="24" height="24" viewBox="0 0 24 24"><path d="M3.28,2L2,3.27L4.77,6.04L5.64,7.39L4.22,9.6L5.95,10.5L7.23,8.5L10.73,12H4A2,2 0 0,0 2,14V22H4V20H18.73L20,21.27V22H22V20.73L22,20.72V20.72L3.28,2M7,17A1,1 0 0,1 6,18A1,1 0 0,1 5,17V15A1,1 0 0,1 6,14A1,1 0 0,1 7,15V17M11,17A1,1 0 0,1 10,18A1,1 0 0,1 9,17V15A1,1 0 0,1 10,14A1,1 0 0,1 11,15V17M15,17A1,1 0 0,1 14,18A1,1 0 0,1 13,17V15C13,14.79 13.08,14.61 13.18,14.45L15,16.27V17M16.25,9.5L17.67,7.3L16.25,5.1L18.25,2L20,2.89L18.56,5.1L20,7.3V7.31L18,10.4L16.25,9.5M22,14V18.18L19,15.18V15A1,1 0 0,0 18,14C17.95,14 17.9,14 17.85,14.03L15.82,12H20C21.11,12 22,12.9 22,14M11.64,7.3L10.22,5.1L12.22,2L13.95,2.89L12.53,5.1L13.95,7.3L13.94,7.31L12.84,9L11.44,7.62L11.64,7.3M7.5,3.69L6.1,2.28L6.22,2.09L7.95,3L7.5,3.69Z" /></svg>
